icons/conical.svg

<?xml version="1.0" encoding="UTF-8" standalone="no"?>
<svg
   version="1.0"
   width="32"
   height="32"
   id="svg2"
   sodipodi:docname="conical.svg"
   inkscape:version="1.2.2 (b0a8486541, 2022-12-01)"
   xmlns:inkscape="http://www.inkscape.org/namespaces/inkscape"
   xmlns:sodipodi="http://sodipodi.sourceforge.net/DTD/sodipodi-0.dtd"
   xmlns="http://www.w3.org/2000/svg"
   xmlns:svg="http://www.w3.org/2000/svg">
  <defs
     id="defs12" />
  <sodipodi:namedview
     id="namedview18"
     pagecolor="#ffffff"
     bordercolor="#eeeeee"
     borderopacity="1"
     inkscape:showpageshadow="0"
     inkscape:pageopacity="0"
     inkscape:pagecheckerboard="0"
     inkscape:deskcolor="#505050"
     showgrid="false"
     inkscape:zoom="90.509668"
     inkscape:cx="16.633582"
     inkscape:cy="12.849456"
     inkscape:window-width="2391"
     inkscape:window-height="1826"
     inkscape:window-x="1319"
     inkscape:window-y="132"
     inkscape:window-maximized="0"
     inkscape:current-layer="g4073"
     showguides="true">
    <sodipodi:guide
       position="16,21.058596"
       orientation="-1,0"
       id="guide163"
       inkscape:locked="false"
       inkscape:label=""
       inkscape:color="rgb(0,134,229)" />
    <sodipodi:guide
       position="16,16"
       orientation="-0.25881905,0.96592583"
       id="guide1002"
       inkscape:locked="false"
       inkscape:label=""
       inkscape:color="rgb(0,134,229)" />
    <sodipodi:guide
       position="12.3125,16"
       orientation="0,-1"
       id="guide309"
       inkscape:locked="false" />
    <sodipodi:guide
       position="16,16"
       orientation="0.96592583,-0.25881905"
       id="guide303"
       inkscape:label=""
       inkscape:locked="false"
       inkscape:color="rgb(0,134,229)" />
    <sodipodi:guide
       position="15,16"
       orientation="0.96592583,-0.25881905"
       id="guide305"
       inkscape:label=""
       inkscape:locked="false"
       inkscape:color="rgb(0,134,229)" />
    <sodipodi:guide
       position="17,16"
       orientation="0.96592583,-0.25881905"
       id="guide307"
       inkscape:label=""
       inkscape:locked="false"
       inkscape:color="rgb(0,134,229)" />
  </sodipodi:namedview>
  <style
     type="text/css"
     id="base">
      .outline {
        fill: none;
        stroke: black;
        stroke-width: 0.3;
      }
      .inline {
        fill: none;
        stroke: none;
        stroke-width: 0.8;
      }
      .fill {
        fill: none;
        stroke: none;
        stroke-width: 0.3;
      }
      .baseline {
        fill: none;
        stroke: black;
        stroke-width: 0.5;
      }
      .basepoint {
        fill: white;
        stroke: black;
        stroke-width: 0.5;
      }
      COLORING{}
  </style>
  <g
     id="g4073"
     transform="rotate(15,16,16)">
    <path
       id="path295"
       class="fill vertical02 vertical03 uniform horizontal02 horizontal03 horizontal04 cross02"
       d="m 16,9.7506672 c -2.447035,1.9115558 -2.942256,5.2686078 -3.128906,7.0878908 l 6.070053,-1.626636 C 18.511423,12.953334 17.473098,11.179022 16,9.7506672 Z" />
    <path
       id="path376"
       class="fill vertical13"
       d="M 15.033697 10.688245 L 15.034074 16.258819 L 18.941169 15.211916 C 18.511445 12.95333 17.472661 11.178395 15.999564 9.7500412 C 15.636111 10.033961 15.316418 10.350323 15.033697 10.688245 z " />
    <path
       id="path1002"
       class="fill vertical12"
       d="m 16,9.7506672 0,6.2499998 2.941406,-0.787109 C 18.615585,13.801826 18.113656,11.689146 16,9.7506672 Z" />
    <path
       id="path381"
       class="fill vertical23"
       d="M 16.965571 10.81967 L 16.965926 15.741181 L 18.941169 15.211916 C 18.612729 13.485673 17.927565 12.042053 16.965571 10.81967 z " />
    <path
       id="path1008"
       class="fill horizontal13"
       d="m 14.261719,11.817158 c -0.420836,0.831853 -1.353303,3.134089 -1.390625,5.021315 l 6.070053,-1.626466 c -0.256094,-1.073121 -0.668573,-2.501029 -1.273178,-3.394849 -1.150091,0.240672 -2.283414,0.206323 -3.40625,0 z" />
    <path
       id="path968"
       class="fill horizontal23"
       d="m 18.568358,13.883479 c -1.739701,0.397901 -3.455999,0.364736 -5.154296,0 -0.323835,1.110772 -0.46289,2.174553 -0.542968,2.955079 l 6.070311,-1.625 c -0.09696,-0.365508 -0.211154,-0.821843 -0.373047,-1.330079 z" />
    <path
       id="path1033"
       class="fill horizontal14"
       d="m 14.578125,11.301448 c -0.538461,0.911582 -1.691659,3.262627 -1.707031,5.53694 l 6.070053,-1.626466 c -0.344398,-1.723627 -0.882343,-2.708436 -1.59935,-3.910474 -0.948275,0.139634 -1.862927,0.105707 -2.763672,0 z" />
    <path
       id="path1036"
       class="fill horizontal24 horizontal12"
       d="m 13.771484,12.850276 c -0.454878,1.341689 -0.761298,2.585755 -0.90039,3.988282 l 6.070312,-1.625 c -0.06091,-0.761453 -0.514982,-1.803335 -0.755859,-2.363282 -1.556811,0.257636 -3.010349,0.197141 -4.414063,0 z" />
    <path
       id="path966"
       class="fill horizontal34"
       d="m 18.722656,14.401058 c -1.865326,0.34895 -3.6745,0.310596 -5.447265,0 -0.227276,0.91922 -0.33675,1.779105 -0.404297,2.4375 l 6.070312,-1.625 c -0.06272,-0.236417 -0.13387,-0.511067 -0.21875,-0.8125 z" />
    <path
       class="inline cross12"
       d="m 13.706306,13.116998 c 1.284343,0.221609 3.081784,0.311932 4.573887,0.106426"
       id="path488" />
    <path
       class="inline cross12"
       d="m 16,16 0.0013,-6.0861453"
       id="path486" />
    <path
       class="outline"
       id="path390"
       d="M 18.941147,15.211922 C 18.610435,13.965312 18.113658,11.689148 16,9.7506672 13.552963,11.662225 13.057744,15.019104 12.871094,16.838388" />
  </g>
  <path
     class="baseline"
     d="m 11.457132,16 h 9.085736"
     id="path5179" />
  <circle
     class="basepoint"
     id="path5349"
     cx="16"
     cy="16"
     r="1" />
</svg>

<?xml version="1.0" encoding="UTF-8" standalone="no"?>
<svg
   version="1.0"
   width="32"
   height="32"
   id="svg2"
   sodipodi:docname="conical.svg"
   inkscape:version="1.2.2 (b0a8486541, 2022-12-01)"
   xmlns:inkscape="http://www.inkscape.org/namespaces/inkscape"
   xmlns:sodipodi="http://sodipodi.sourceforge.net/DTD/sodipodi-0.dtd"
   xmlns="http://www.w3.org/2000/svg"
   xmlns:svg="http://www.w3.org/2000/svg">
  <defs
     id="defs12" />
  <sodipodi:namedview
     id="namedview18"
     pagecolor="#ffffff"
     bordercolor="#eeeeee"
     borderopacity="1"
     inkscape:showpageshadow="0"
     inkscape:pageopacity="0"
     inkscape:pagecheckerboard="0"
     inkscape:deskcolor="#505050"
     showgrid="false"
     inkscape:zoom="64"
     inkscape:cx="12.203125"
     inkscape:cy="13.40625"
     inkscape:window-width="2391"
     inkscape:window-height="1826"
     inkscape:window-x="1290"
     inkscape:window-y="229"
     inkscape:window-maximized="0"
     inkscape:current-layer="g4073"
     showguides="true">
    <sodipodi:guide
       position="16,21.058596"
       orientation="-1,0"
       id="guide163"
       inkscape:locked="false"
       inkscape:label=""
       inkscape:color="rgb(0,134,229)" />
    <sodipodi:guide
       position="16,16"
       orientation="-0.25881905,0.96592583"
       id="guide1002"
       inkscape:locked="false"
       inkscape:label=""
       inkscape:color="rgb(0,134,229)" />
  </sodipodi:namedview>
  <style
     type="text/css"
     id="base">
      .outline {
        fill: none;
        stroke: #111111;
        stroke-width: 0.5;
      }
      .fill {
        stroke: none;
        stroke-width: 0.3;
        fill: none;
      }
      .base {
        fill: white;
      }
      COLORING{}
  </style>
  <g
     id="g4073"
     transform="rotate(15,16,16)">
    <path
       id="path968"
       class="fill horizontal23"
       d="M 18.568359 13.882812 L 13.414062 13.882812 C 13.090227 14.993584 12.951172 16.057365 12.871094 16.837891 L 18.941406 15.212891 C 18.844441 14.847383 18.730251 14.391048 18.568359 13.882812 z " />
    <path
       id="path1008"
       class="fill horizontal13"
       d="M 14.261719 11.816406 C 13.886208 12.486208 13.615055 13.193398 13.414062 13.882812 L 18.568359 13.882812 C 18.368115 13.254175 18.093234 12.544984 17.667969 11.816406 L 14.261719 11.816406 z " />
    <path
       id="path1005"
       class="fill horizontal03"
       d="M 16 9.75 C 15.254419 10.332427 14.691388 11.050001 14.261719 11.816406 L 17.667969 11.816406 C 17.264427 11.125045 16.727386 10.417101 16 9.75 z " />
    <path
       id="path295"
       class="fill vertical02 uniform"
       d="M 16 9.75 C 13.552965 11.661556 13.057744 15.018608 12.871094 16.837891 L 16 16 L 16 9.75 z " />
    <path
       id="path1002"
       class="fill vertical12 uniform"
       d="M 16 9.75 L 16 16 L 18.941406 15.212891 C 18.610695 13.966282 18.113656 11.688479 16 9.75 z " />
    <path
       id="path966"
       class="fill horizontal34 horizontal12"
       d="M 18.722656 14.400391 L 13.275391 14.400391 C 13.048115 15.319611 12.938641 16.179496 12.871094 16.837891 L 18.941406 15.212891 C 18.878688 14.976474 18.807536 14.701824 18.722656 14.400391 z " />
    <path
       id="path1036"
       class="fill horizontal24 horizontal12"
       d="M 13.771484 12.849609 C 13.561596 13.369326 13.400689 13.89362 13.275391 14.400391 L 18.722656 14.400391 C 18.592246 13.937262 18.426424 13.409556 18.185547 12.849609 L 13.771484 12.849609 z " />
    <path
       id="path1033"
       class="fill horizontal14 horizontal02"
       d="M 14.578125 11.300781 C 14.248506 11.794444 13.985525 12.319612 13.771484 12.849609 L 18.185547 12.849609 C 17.970678 12.350122 17.69874 11.826251 17.341797 11.300781 L 14.578125 11.300781 z " />
    <path
       id="path1030"
       class="fill horizontal04 horizontal02"
       d="M 16 9.75 C 15.424648 10.199449 14.959034 10.730303 14.578125 11.300781 L 17.341797 11.300781 C 16.986036 10.777053 16.547555 10.252174 16 9.75 z " />
    <path
       class="outline "
       id="path390"
       d="M 18.941147,15.211922 C 18.610435,13.965312 18.113658,11.689148 16,9.7506672 13.552963,11.662225 13.057744,15.019104 12.871094,16.838388"
       sodipodi:nodetypes="ccc" />
  </g>
  <path
     class="outline"
     d="m 11.457132,16 h 9.085736"
     id="path5179" />
  <circle
     class="base"
     id="path5349"
     cx="16"
     cy="16"
     r="1" />
</svg>
